assets/images/prev.svg

<svg fill="none" height="28" viewBox="0 0 17 28" width="17" xmlns="http://www.w3.org/2000/svg"><path clip-rule="evenodd" d="m15.621.640704c.8665.854276.8665 2.239316 0 3.093596l-10.26446 10.1199 10.26446 10.1198c.8665.8543.8665 2.2394 0 3.0936-.8665.8543-2.2713.8543-3.1378 0l-11.833343-11.6666c-.866476-.8543-.866476-2.2394 0-3.0936l11.833343-11.666696c.8665-.854272 2.2713-.854272 3.1378 0z" fill="#e8e8e8" fill-rule="evenodd"/></svg>

<svg width="17" height="28" viewBox="0 0 17 28" fill="none" xmlns="http://www.w3.org/2000/svg">
<path fill-rule="evenodd" clip-rule="evenodd" d="M15.621 0.640704C16.4875 1.49498 16.4875 2.88002 15.621 3.7343L5.35654 13.8542L15.621 23.974C16.4875 24.8283 16.4875 26.2134 15.621 27.0676C14.7545 27.9219 13.3497 27.9219 12.4832 27.0676L0.649857 15.401C-0.216619 14.5467 -0.216619 13.1616 0.649857 12.3074L12.4832 0.640704C13.3497 -0.213568 14.7545 -0.213568 15.621 0.640704Z" fill="#E8E8E8"/>
</svg>
